X:284
T:Reel 284
M:4/4
K:Dmaj
L:1/8
AG|F>D (3DDD DEDB,|A,B,DF GFED|G>E (3EEE EFGA|Beef edcB|A<F (3FFF DFAF|DB,DE F>D (3EDC |DEEG EFGA|BABc d2|A2|F>D (3DDD DDDDDDDD DDDD D|A,>D (3EDD F>D (3DDD |B>E (3EEE B>E (3EEE |G>E (3EEE G>E (3EEE |G>E (3EEE B2AE| (3FED FD A,DFD|EECE A,GAG|
